X: 3
T: Andy McGann's
R: reel
M: 4/4
L: 1/8
K: Cmaj
|: ecBc ecGE |FEDC B,DGF |EGcE FAdc|1 Bg^fg agfg :|2 BG (3GAG BcdB:||:c2gc acgc |c2ag fedB |1 c2Gc EcGE | FEDC B,DGB :|2 cg^fg dg^fg |bag^f ag^fg:|


Tune 3278	Setting 28379

